X:74
T: Graf und Nonne (Die Nonne)
N: Q1155K
O: Mitteleuropa, Deutschland (DDR) , Brandenburg, Berlin
N: Melodievergleich zu Q0155M., anderes Lied (genetisch verwandt ?).
N: Anhaengsel an der vierten Zeile.
R: Ehestands - Klage ???
M: 6/8
L: 1/8
K: G
D | G2DB,DG | GFz3
D | DFAd2c | B3z2
B | BAGGFE | EEz3
E | DDDDEF | G2BBA
G | FEFDEF | G3z2

